X: 9495
T: Dark Horse, The
R: slip jig
M: 9/8
K: Eminor
|:EFG B2c ~B3|EFG B2c BGE|DEF A2B ~A3|DEF A2B AFD:|
EGB e2f ~e3|EGB e2d edB|DFA d2e d^cd|DFA d2^c dAF|
EGB e2f ~e3|EGB e2d edB|DFA d2e d2e|fed e2d B2A||
|:GFE e2B G2B|EGB e2B EFG|FED d2A F2A|DFA d2F DEF:|

